X:1
T:Faut Maritleken
R:Polska
O:lvdalen, Dalarna
M:3/4
L:1/8
K:Em
(3A2^c2d2 e^c/2|(3d2B2G2 B2-|(3B3/2 fgf e^c|d2 B4:|
(3:2:4 B2G2FG A>F|(3:2:4F2EEG2 B2-|(3:2:4B2G2FG A>F|
(3:2:4F2EEG2 B2-|(3:2:4B2G2FG A>F|F3/2E/2 E4:|
